X:1
T:Quaerite primum - Casciolini
T:James Gibb editions
T:#
%%score { 1 | 2 } 3
L:1/8
Q:1/4=63
M:4/4
K:Eb
V:1 treble nm="Soprano I" snm="S"
V:2 treble 
V:3 treble nm="Alto" snm="A"
V:1
"^Quaerite primum""^Claudio Casciolini\n(1697-1760)"!p! (G2 B3) B (AG) | (F2 GA)"^," G4 | %2
w: Quae\- * ri- te *|pri\- * * mum|
 (B4!<(! c)c (de)!<)! | (B3 c A)!>(!A G2!>)! | (G>F!tenuto!G!tenuto!A)"^," F4 | %5
w: quae\- * ri- te, *|quae\- * * ri- te|pri\- * * * mum,|
[M:4/4] z2 (cd ed) (ef) | (fe) d4 z2 | z2 (cd ed) (ef) | (fe) d4 z2 |!f! f2 f2 f>f e2 | %10
w: re\- * * * gnum *|De\- * i,|re\- * * * gnum *|De\- * i,|et ju- sti- ti- am|
 d2 c2 B=A G2- | G2 ^F2 G4 |!f! c2 c2 f>f g2 | e2 d2!ff! f2 g2 | e>d"^," d2 c2 (eg) | %15
w: e\- * * * *|* * jus,|et ju- sti- ti- am|e- jus, et ju-|sti- ti- am, et ju\- *|
 (gf)ed!>(! (fedc)!>)! | !fermata!B8 |!p! (B2 _d4) (cB) | (A>G A)B"^," G4 |!f! (A2 c4) (BA) | %20
w: sti\- * ti- am e\- * * *|jus,|et * haec *|o\- * * mni- a,|et * haec *|
!>(! (G>F!tenuto!G!tenuto!A F2)!>)! F2 | G4 z4 | z8 | (B4 c)cde | (B3 c A2) G2 | %25
w: o\- * * * * mni-|a||ad\- * j- i- ci-|en\- * * tur|
 (G>F!tenuto!G!tenuto!A)"^," F4 |!f! B6 B2 | Bc"^," e2 Bedc | (B8- | Bc)"^," e4!f! e2- | %30
w: vo\- * * * bis,|et haec|o- mni- a ad- j- i- ci-|en\-|* * tur, ad\-|
 e2 B2 c2 _d2 | c2 e2 ee=dc | (cB) (AG) (BAGF) |"^," G4 AAGG | c2 B2"^," (F2 Ac | G4 F4) | %36
w: * j- i- ci-|en- tur, ad- i- i- ci-|en\- * tur * vo\- * * *|bis, ad- j- i- ci-|en- tur, vo\- * *||
 B2 e3 eee | (e8- |"^rall."[Q:1/4=62] e[Q:1/4=60]B)[Q:1/4=59]G[Q:1/4=57]E[Q:1/4=54] F4 | %39
w: bis, ad- j- i- ci-|en\-|* * tur * vo-|
[Q:1/4=52] !fermata!E8 |] %40
w: bis.|
V:2
!p! (E2 G3) G (FE) | (B,2 EF)"^," E4 | (G4!<(! A)A (Bc)!<)! | (G3 A F)F E2 | E4"^," D4 | %5
w: Quae\- * ri- te *|pri\- * * mum|quae\- * ri- te, *|quae\- * * ri- te|pri- mum,|
[M:4/4] F6 F2 | (FG) B2 (FB) (=AG) | (F8- | FG) B2!f! B2 B2 | B>B =A2 G4 | (^F4 G=A B2) | %11
w: re- gnum|De\- * i, re\- * gnum *|De\-|* * i, et ju-|sti- ti- am e\-||
 =A4!f! B2 B2 | B>B =A2 B4- | B2"^," B2!ff! B2 B2 | B>B"^," B2 B3 e | (ed)cB!>(! (dcB=A)!>)! | %16
w: jus, et ju-|sti- ti- am e\-|* jus, et ju-|sti- ti- am, et ju-|sti\- * ti- am e\- * * *|
 !fermata!B8 |!p! B6 (AG) | F6 =E2 |"^," F2!f! A4 (GF) |!>(! E6!>)! D2 | E2 B3 BAG | %22
w: jus,|et haec *|o- mni-|a, et haec *|o- mni-|a ad- j- i- ci-|
 (F2 GA)"^," G4 | (G4 A)ABc | (G3 A F2) E2 | E4"^," D4 | z2!f! (FG AG) (AB) | BA G4 z2 | %28
w: en\- * * tur,|ad\- * j- i- ci-|en\- * * tur|vo- bis,|et * * * haec *|o- mni- a|
 z2 (FG) (AG) (AB) | (BA)"^," G4!f! G2- | G2 F2 =E2 (FG) | A2 c2 ccBA | (AG) (FE) (GFED) | %33
w: ad\- * ji\- * ci\- *|en\- * tur ad\-|* j- i- ci\- *|en- tur, ad- j- i- ci-|en\- * tur * vo\- * * *|
"^," E2 E3 EEE | E8- | E2 E4 !>!D2 | E4 AAGG | c2 B2 F2 Ac | G2 E4 D2 | !fermata!E8 |] %40
w: bis, ad- j- i- ci-|en\-|* tur vo-|bis, ad- j- i- ci-|en- tur vo\- * *||bis.|
V:3
 z8 | z8 |!p! E4-!<(! EE E2!<)! | E4!>(! A,2 =A,2!>)! | B,4"^," B,4 |[M:4/4] z2 (=A,B, CB,) (CD) | %6
w: ||quae\- * ri- te,|quae- ri- te|pri- mum|re\- * * * gnum *|
 (DC) B,4 z2 | z2 (=A,B, CB,) (CD) | (DC) B,4 z2 | z4!f! C2 C2 | D>D D2 (G4 | D4) G4 | %12
w: De\- * i,|re\- * * * gnum *|De\- * i,|et ju-|sti- ti- am e\-|* jus,|
!f! F2 F2 D>D E2 | G2"^," F2!ff! D2 E2 | G>F"^," F2 E4 | FF F2!>(! F4!>)! | !fermata!B,8 | %17
w: et ju- sti- ti- am|e- jus, et ju-|sti- ti- am, ju-|sti- ti- am e-|jus,|
 z4!p! B,2 B,2 | C6 C2 |"^," F4!f! A,2 A,2 |!>(! B,6!>)! B,2 | E2 G3 GFE | (B,2 EF)"^," E4 | %23
w: et haec|o- mni-|a, et haec|o- mni-|a ad- j- i- ci-|en\- * * tur,|
 E4- EEEE | (E4 A,2) =A,2 | B,4"^," B,4 | z2!f! (DE FE) (FG) | GF E4 z2 | z2 (DE) (FE) (FG) | %29
w: ad\- * j- i- ci-|en\- * tur~|vo- bis,|et * * * haec *|o- mni- a|ad\- * ji\- * ci\- *|
 (GF)"^," E4!f! E2- | E2 _D2 C2 B,2 | A,2 A,2 A,A,A,A, | B,2 B,2 B,4 |"^," E4 CCB,B, | %34
w: en\- * tur ad\-|* j- i- ci-|en- tur, ad- j- i- ci-|en- tur vo-|bis, ad- j- i- ci-|
 A,2 G,2 (A,4 | B,8) | G,4 CCB,B, | A,2 G,2 (A,4 | B,3 C B,4) | !fermata!E8 |] %40
w: en- tur vo\-||bis, ad- j- i- ci-|en- tur vo\-||bis.|

